X:253
T:Sea,The Open Sea,The T.Williams,1834. JC.258
R:March
S:John Clare,Poet,Helpstone (1793-1864)
N:Song text exists,(or not). See Deacon.
N:Bryan Waller Procter, aka Barry Cornwall (1787-1874)
N:credited with the words. Published by James Lindsay, Glasgow.
O:England
A:Northamptonshire
Z:vmp.P. Headford
M:6/8
L:1/8
Q:3/8=90
K:F
c|f3-fzc|a3-azf|\
g3c3|f3zcc|g2ef2d|e2cd2=B|!
c2e gf d|c3zz2|zzcc2d|e2e ed e|f2f f d =B|^G2G A=B c|!
B3z2e|e3e d e|g3-g2e|f3-fg f|e3zzc|c=B A ^G G|!
AG FE2e|fe d c=B A|d3e3|A3zz2|f3f2f|f3zz2|!
c3c2c|c3zzc|f2f fe d|c2A A B c|d2d d c B|A2F Fc2|!
f3e3|d3e3|^c3 c=B c|d3zd c|c3-cd e|f3-f e f|!
g3gfg|a3zzf|g czzzg|a fzz2z|g2ge de|!
f2zzzd|g czzzg|a fzz2z|ga b cd e|f3z2|]

